assets/icons/utility/tablet_portrait.svg

<?xml version="1.0"?><svg xmlns="http://www.w3.org/2000/svg" width="52" height="52" viewBox="0 0 52 52"><path fill="#fff" d="m46 6c0-2.2-1.8-4-4-4h-32c-2.2 0-4 1.8-4 4v40c0 2.2 1.8 4 4 4h32c2.2 0 4-1.8 4-4v-40z m-20.1 42c-1.7 0-3-1.3-3-3s1.3-3 3-3 3 1.3 3 3-1.4 3-3 3z m14.1-9.5c0 0.8-0.7 1.5-1.5 1.5h-25c-0.8 0-1.5-0.7-1.5-1.5v-29c0-0.8 0.7-1.5 1.5-1.5h25c0.8 0 1.5 0.7 1.5 1.5v29z"></path></svg>

<svg xmlns="http://www.w3.org/2000/svg" x="0px" y="0px"
	 width="52px" height="52px" viewBox="0 0 52 52" enable-background="new 0 0 52 52" xml:space="preserve">
<path fill="#FFFFFF" d="M46,6c0-2.2-1.8-4-4-4H10C7.8,2,6,3.8,6,6v40c0,2.2,1.8,4,4,4h32c2.2,0,4-1.8,4-4V6z M25.9,48
	c-1.7,0-3-1.3-3-3s1.3-3,3-3s3,1.3,3,3S27.5,48,25.9,48z M40,38.5c0,0.8-0.7,1.5-1.5,1.5h-25c-0.8,0-1.5-0.7-1.5-1.5v-29
	C12,8.7,12.7,8,13.5,8h25C39.3,8,40,8.7,40,9.5V38.5z"/>
</svg>
